scalable/places/folder-books.svg

<?xml version="1.0" encoding="UTF-8" standalone="no"?>
<svg
   height="128px"
   viewBox="0 0 128 128"
   width="128px"
   version="1.1"
   id="svg9"
   sodipodi:docname="folder-books.svg"
   xml:space="preserve"
   inkscape:version="1.3.2 (091e20ef0f, 2023-11-25)"
   xmlns:inkscape="http://www.inkscape.org/namespaces/inkscape"
   xmlns:sodipodi="http://sodipodi.sourceforge.net/DTD/sodipodi-0.dtd"
   xmlns="http://www.w3.org/2000/svg"
   xmlns:svg="http://www.w3.org/2000/svg"><defs
     id="defs9" /><sodipodi:namedview
     id="namedview9"
     pagecolor="#ffffff"
     bordercolor="#000000"
     borderopacity="0.25"
     inkscape:showpageshadow="2"
     inkscape:pageopacity="0.0"
     inkscape:pagecheckerboard="0"
     inkscape:deskcolor="#d1d1d1"
     inkscape:zoom="3.5"
     inkscape:cx="10.571429"
     inkscape:cy="63.714285"
     inkscape:window-width="1920"
     inkscape:window-height="1043"
     inkscape:window-x="0"
     inkscape:window-y="0"
     inkscape:window-maximized="1"
     inkscape:current-layer="svg9" /><linearGradient
     id="a"
     gradientTransform="matrix(0.45451 0 0 0.455522 -1210.292114 616.172607)"
     gradientUnits="userSpaceOnUse"
     x1="2689.251953"
     x2="2918.069824"
     y1="-1106.802979"
     y2="-1106.802979"><stop
       offset="0"
       stop-color="#62a0ea"
       id="stop1" /><stop
       offset="0.0576991"
       stop-color="#afd4ff"
       id="stop2" /><stop
       offset="0.122204"
       stop-color="#62a0ea"
       id="stop3" /><stop
       offset="0.873306"
       stop-color="#62a0ea"
       id="stop4" /><stop
       offset="0.955997"
       stop-color="#c0d5ea"
       id="stop5" /><stop
       offset="1"
       stop-color="#62a0ea"
       id="stop6" /></linearGradient><path
     d="m 21.976562 12 c -5.527343 0 -9.976562 4.460938 -9.976562 10 v 86.03125 c 0 5.542969 4.449219 10 9.976562 10 h 84.042969 c 5.53125 0 9.980469 -4.457031 9.980469 -10 v -72.085938 c 0 -6.628906 -5.359375 -12 -11.972656 -12 h -46.027344 c -2.453125 0 -4.695312 -1.386718 -5.796875 -3.582031 l -1.503906 -2.992187 c -1.65625 -3.292969 -5.019531 -5.371094 -8.699219 -5.371094 z m 0 0"
     fill="#438de6"
     id="path6"
     style="fill:#b3b3b3;fill-opacity:1" /><path
     d="m 65.976562 36 c -2.746093 0 -5.226562 1.101562 -7.027343 2.890625 c -2.273438 2.253906 -5.382813 5.109375 -8.632813 5.109375 h -28.339844 c -5.527343 0 -9.976562 4.460938 -9.976562 10 v 54.03125 c 0 5.542969 4.449219 10 9.976562 10 h 84.042969 c 5.53125 0 9.980469 -4.457031 9.980469 -10 v -62.03125 c 0 -5.539062 -4.449219 -10 -9.980469 -10 z m 0 0"
     fill="url(#a)"
     id="path7"
     style="fill:#b3b3b3;fill-opacity:1" /><path
     d="m 65.976562 32 c -2.746093 0 -5.226562 1.101562 -7.027343 2.890625 c -2.273438 2.253906 -5.382813 5.109375 -8.632813 5.109375 h -28.339844 c -5.527343 0 -9.976562 4.460938 -9.976562 10 v 55.976562 c 0 5.539063 4.449219 10 9.976562 10 h 84.042969 c 5.53125 0 9.980469 -4.460937 9.980469 -10 v -63.976562 c 0 -5.539062 -4.449219 -10 -9.980469 -10 z m 0 0"
     fill="#a4caee"
     id="path8"
     style="fill:#ececec;fill-opacity:1" /><g
     style="fill:#b3b3b3;fill-opacity:1"
     id="g1"
     transform="matrix(0.05529366,0,0,0.05529366,37.459043,104.13716)"><path
       d="m 260,-320 q 47,0 91.5,10.5 44.5,10.5 88.5,31.5 v -394 q -41,-24 -87,-36 -46,-12 -93,-12 -36,0 -71.5,7 -35.5,7 -68.5,21 v 396 q 35,-12 69.5,-18 34.5,-6 70.5,-6 z m 260,42 q 44,-21 88.5,-31.5 44.5,-10.5 91.5,-10.5 36,0 70.5,6 34.5,6 69.5,18 v -396 q -33,-14 -68.5,-21 -35.5,-7 -71.5,-7 -47,0 -93,12 -46,12 -87,36 z m -40,97 q -14,0 -26.5,-3.5 -12.5,-3.5 -23.5,-9.5 -39,-23 -82,-34.5 -43,-11.5 -88,-11.5 -42,0 -82.5,11 -40.5,11 -77.5,31 -21,11 -40.5,-1 Q 40,-211 40,-234 v -482 q 0,-11 5.5,-21 5.5,-10 16.5,-15 46,-24 96,-36 50,-12 102,-12 58,0 113.5,15 55.5,15 106.5,45 51,-30 106.5,-45 55.5,-15 113.5,-15 52,0 102,12 50,12 96,36 11,5 16.5,15 5.5,10 5.5,21 v 482 q 0,23 -19.5,35 -19.5,12 -40.5,1 -37,-20 -77.5,-31 -40.5,-11 -82.5,-11 -45,0 -88,11.5 -43,11.5 -82,34.5 -11,6 -23.5,9.5 Q 494,-181 480,-181 Z M 280,-494 Z m 280,-115 q 0,-9 6.5,-18.5 6.5,-9.5 14.5,-12.5 29,-10 58,-15 29,-5 61,-5 20,0 39.5,2.5 19.5,2.5 38.5,6.5 9,2 15.5,10 6.5,8 6.5,18 0,17 -11,25 -11,8 -28,4 -14,-3 -29.5,-4.5 -15.5,-1.5 -31.5,-1.5 -26,0 -51,5 -25,5 -48,13 -18,7 -29.5,-1 -11.5,-8 -11.5,-26 z m 0,220 q 0,-9 6.5,-18.5 6.5,-9.5 14.5,-12.5 29,-10 58,-15 29,-5 61,-5 20,0 39.5,2.5 19.5,2.5 38.5,6.5 9,2 15.5,10 6.5,8 6.5,18 0,17 -11,25 -11,8 -28,4 -14,-3 -29.5,-4.5 -15.5,-1.5 -31.5,-1.5 -26,0 -51,4.5 -25,4.5 -48,12.5 -18,7 -29.5,-0.5 Q 560,-371 560,-389 Z m 0,-110 q 0,-9 6.5,-18.5 6.5,-9.5 14.5,-12.5 29,-10 58,-15 29,-5 61,-5 20,0 39.5,2.5 19.5,2.5 38.5,6.5 9,2 15.5,10 6.5,8 6.5,18 0,17 -11,25 -11,8 -28,4 -14,-3 -29.5,-4.5 -15.5,-1.5 -31.5,-1.5 -26,0 -51,5 -25,5 -48,13 -18,7 -29.5,-1 -11.5,-8 -11.5,-26 z"
       id="path1"
       style="fill:#b3b3b3;fill-opacity:1" /></g></svg>

<svg xmlns="http://www.w3.org/2000/svg" xml:space="preserve" width="128" height="128" viewBox="0 0 128 128">
    <linearGradient id="a" x1="2689.252" x2="2918.07" y1="-1106.803" y2="-1106.803" gradientTransform="matrix(.45451 0 0 .45552 -1210.292 616.173)" gradientUnits="userSpaceOnUse">
        <stop offset="0" stop-color="#62a0ea"/>
        <stop offset=".058" stop-color="#afd4ff"/>
        <stop offset=".122" stop-color="#62a0ea"/>
        <stop offset=".873" stop-color="#62a0ea"/>
        <stop offset=".956" stop-color="#c0d5ea"/>
        <stop offset="1" stop-color="#62a0ea"/>
    </linearGradient>
    <path fill="#438de6" d="M21.977 12C16.449 12 12 16.46 12 22v86.031c0 5.543 4.45 10 9.977 10h84.043a9.965 9.965 0 0 0 9.98-10V35.945c0-6.629-5.36-12-11.973-12H58a6.49 6.49 0 0 1-5.797-3.582L50.7 17.371A9.74 9.74 0 0 0 42 12zm0 0" style="fill:#b3b3b3;fill-opacity:1"/>
    <path fill="url(#a)" d="M65.977 36a9.93 9.93 0 0 0-7.028 2.89C56.676 41.146 53.566 44 50.316 44h-28.34C16.45 44 12 48.46 12 54v54.031c0 5.543 4.45 10 9.977 10h84.043a9.965 9.965 0 0 0 9.98-10V46c0-5.54-4.45-10-9.98-10zm0 0" style="fill:#b3b3b3;fill-opacity:1"/>
    <path fill="#a4caee" d="M65.977 32a9.93 9.93 0 0 0-7.028 2.89C56.676 37.146 53.566 40 50.316 40h-28.34C16.45 40 12 44.46 12 50v55.977c0 5.539 4.45 10 9.977 10h84.043c5.53 0 9.98-4.461 9.98-10V42c0-5.54-4.45-10-9.98-10zm0 0" style="fill:#ececec;fill-opacity:1"/>
    <path d="M260-320q47 0 91.5 10.5T440-278v-394q-41-24-87-36t-93-12q-36 0-71.5 7T120-692v396q35-12 69.5-18t70.5-6m260 42q44-21 88.5-31.5T700-320q36 0 70.5 6t69.5 18v-396q-33-14-68.5-21t-71.5-7q-47 0-93 12t-87 36zm-40 97q-14 0-26.5-3.5T430-194q-39-23-82-34.5T260-240q-42 0-82.5 11T100-198q-21 11-40.5-1T40-234v-482q0-11 5.5-21T62-752q46-24 96-36t102-12q58 0 113.5 15T480-740q51-30 106.5-45T700-800q52 0 102 12t96 36q11 5 16.5 15t5.5 21v482q0 23-19.5 35t-40.5 1q-37-20-77.5-31T700-240q-45 0-88 11.5T530-194q-11 6-23.5 9.5T480-181m80-428q0-9 6.5-18.5T581-640q29-10 58-15t61-5q20 0 39.5 2.5T778-651q9 2 15.5 10t6.5 18q0 17-11 25t-28 4q-14-3-29.5-4.5T700-600q-26 0-51 5t-48 13q-18 7-29.5-1T560-609m0 220q0-9 6.5-18.5T581-420q29-10 58-15t61-5q20 0 39.5 2.5T778-431q9 2 15.5 10t6.5 18q0 17-11 25t-28 4q-14-3-29.5-4.5T700-380q-26 0-51 4.5T601-363q-18 7-29.5-.5T560-389m0-110q0-9 6.5-18.5T581-530q29-10 58-15t61-5q20 0 39.5 2.5T778-541q9 2 15.5 10t6.5 18q0 17-11 25t-28 4q-14-3-29.5-4.5T700-490q-26 0-51 5t-48 13q-18 7-29.5-1T560-499" style="fill:#b3b3b3;fill-opacity:1" transform="translate(37.459 104.137)scale(.0553)"/>
</svg>
